X:01
T: New Camptown Races
C: Frank Wakefield
S: MandoZine TablEdit Archives
Z: TablEdited by Mike Stangeland for MandoZine
L: 1/8
Q: 480
M: 4/4
K: Bb
 "Bb"[D2B,2] [DB,][DB,] [D2B,2] [DB,][DB,] | [D2B,2] [DB,][DB,] [D2B,2] G,A, |
|: B,A, B,C DF FA | BA Bc BG GD | "Eb"ED EF GB BG | "Bb"F2 FF FF FD |
 "Gm"GD GA BA BD | GD GA BA BA | "C"cA Bc AG GD | "F"FE FG FE DC |
 "Bb"B,A, B,C DF FA | BA Bc BG GD | "Eb"ED EF GB BG | "Bb"F2 FF F2 D2 |
 [g2B2D2G,2] [d2D2] [d4D4] | [g2B2D2G,2] [g2B2] d3d ||1 d"F"c BF FA Bc | "Bb"B2 BB B2 D=E :|2 d"F"B Bd dB Bd |
